assets/icons/24px/stroke/download-24px.svg

<svg width="24" height="24" viewBox="0 0 24 24" fill="none" xmlns="http://www.w3.org/2000/svg">
<path fill-rule="evenodd" clip-rule="evenodd" d="M3 14C3.55229 14 4 14.4477 4 15V17C4 17.9711 4.00213 18.5988 4.06431 19.0613C4.12263 19.495 4.21677 19.631 4.2929 19.7071C4.36902 19.7832 4.50497 19.8774 4.93871 19.9357C5.40121 19.9979 6.02893 20 7 20H17C17.9711 20 18.5988 19.9979 19.0613 19.9357C19.495 19.8774 19.631 19.7832 19.7071 19.7071C19.7832 19.631 19.8774 19.495 19.9357 19.0613C19.9979 18.5988 20 17.9711 20 17V15C20 14.4477 20.4477 14 21 14C21.5523 14 22 14.4477 22 15L22 17.0658C22.0001 17.9523 22.0001 18.7161 21.9179 19.3278C21.8297 19.9833 21.631 20.6117 21.1213 21.1213C20.6117 21.631 19.9833 21.8297 19.3278 21.9179C18.7161 22.0001 17.9523 22.0001 17.0658 22L7 22C6.97799 22 6.95604 22 6.93417 22C6.04769 22.0001 5.28387 22.0001 4.67221 21.9179C4.0167 21.8297 3.38835 21.631 2.87868 21.1213C2.36902 20.6117 2.17028 19.9833 2.08215 19.3278C1.99991 18.7161 1.99995 17.9523 2 17.0658C2 17.044 2 17.022 2 17V15C2 14.4477 2.44772 14 3 14Z" fill="white"/>
<path fill-rule="evenodd" clip-rule="evenodd" d="M12 2C12.5523 2 13 2.44772 13 3V13.5654L17.2887 9.22566C17.6769 8.83283 18.3101 8.82908 18.7029 9.21729C19.0957 9.6055 19.0995 10.2387 18.7113 10.6315L12.7113 16.7029C12.5234 16.893 12.2673 17 12 17C11.7327 17 11.4766 16.893 11.2887 16.7029L5.28872 10.6315C4.90051 10.2386 4.90426 9.6055 5.29709 9.21729C5.68992 8.82908 6.32307 8.83283 6.71128 9.22566L11 13.5654V3C11 2.44772 11.4477 2 12 2Z" fill="white"/>
</svg>

<svg width="24" height="24" fill="none" xmlns="http://www.w3.org/2000/svg"><path fill-rule="evenodd" clip-rule="evenodd" d="M3 14a1 1 0 0 1 1 1v2c0 .971.002 1.599.064 2.061.059.434.153.57.229.646.076.076.212.17.646.229C5.4 19.998 6.029 20 7 20h10c.971 0 1.599-.002 2.061-.064.434-.059.57-.153.646-.229.076-.076.17-.212.229-.646.062-.462.064-1.09.064-2.061v-2a1 1 0 1 1 2 0v2.066c0 .886 0 1.65-.082 2.262-.088.655-.287 1.284-.797 1.793-.51.51-1.138.709-1.793.797-.612.082-1.376.082-2.262.082H6.934c-.886 0-1.65 0-2.262-.082-.655-.088-1.284-.287-1.793-.797-.51-.51-.709-1.138-.797-1.793C2 18.716 2 17.952 2 17.066V15a1 1 0 0 1 1-1z" fill="#fff"/><path fill-rule="evenodd" clip-rule="evenodd" d="M12 2a1 1 0 0 1 1 1v10.565l4.289-4.34a1 1 0 0 1 1.422 1.407l-6 6.07a1 1 0 0 1-1.422 0l-6-6.07A1 1 0 0 1 6.71 9.226L11 13.566V3a1 1 0 0 1 1-1z" fill="#fff"/></svg>
